X: 30225
T: Old House, The
R: jig
M: 6/8
K: Dminor
|:DAA AGA|FDD DEF|EDE CDE|FGF EFE|
DAA AGA|FDD DEF|EDE CDE|FDD D3:|
|:DAA DBB|Dcc DAA|GAB GAB|AGF EFE|
DAA DBB|Dcc DAA|GAB AGF|GFE D3:|

